images/icon12.svg

<svg height="84" viewBox="0 0 64 84" width="64" xmlns="http://www.w3.org/2000/svg" xmlns:xlink="http://www.w3.org/1999/xlink"><mask id="a" fill="#fff"><path d="m.22143319.05885034h59.29043871v76.94294286h-59.29043871z" fill="none"/></mask><g fill="none" fill-rule="evenodd" transform="translate(2)"><path d="m44.1256773 18.2906299s-13.5363518-11.96195915-9.3685833-18.23189112c0 0-14.9424584 9.16698639-12.4914445 19.98289792 0 0 .1886482.6668776.3515973 1.6436259.3967824 2.3777211.6402176 6.6015578-2.3671389 7.581653 0 0-5.343713 2.4295987-7.3592547-2.6482653 0 0-5.48209255 6.3533266-8.75547681 13.5882926-1.01186574 2.2368707 1.38803241-1.6765375-1.1285 1.1086734-2.83565278 3.138313-2.78538426 6.0250476-2.78538426 6.0381565 0 9.9763877 5.49338889 19.0605374 13.73601387 23.5892245.5329028.2250816 2.706875.8897279 3.2801621 1.0919388 0 0-8.67527319-8.0669592-6.5738797-13.7107347 0 0 2.5947593 3.4537619 5.7114074 3.238721 0 0 2.9853287-.4984149 2.7613797-3.4537619 0 0 0-1.056517-1.7791667-2.967619 0 0-7.1415185-8.6629932 1.7791667-12.8896191 0 0 19.8571944-6.75217 14.9489537-18.0631496 0 0 7.5891342 3.5943333-2.2332778 15.0525782 0 0-8.9209676 9.7808708.4478981 17.1781633 0 0 7.3592547 5.3696054 8.2547686-8.9391157 0 0 17.9286342 15.1847824-2.9695139 29.5213946 0 0 9.882-6.9499184 11.8958472-9.1569456 3.9706481-4.3515782 5.4278704-1.006034 8.9215324-11.0011088 0 0 7.0231898-21.187517-14.2771065-38.5531089" fill="#5cd8ff" mask="url(#a)" transform="translate(.282407 .220061)"/><path d="m43.2537727 34.2900293c-5.0813565 0-9.6546621 2.1386938-12.854338 5.5522925-3.1996759-3.4135987-7.7732639-5.5522925-12.8546203-5.5522925-9.6741482 0-17.51631949 7.7453741-17.51631949 17.2997687 0 4.6723265 1.87857407 8.9089932 4.92687963 12.0216462l.02937037.0309592c.12312963.119932 8.63121759 8.1919116 25.41468979 18.2706599 16.7834722-10.0787483 25.2915602-18.1507279 25.4146898-18.2706599l.0293704-.0309592c3.0480232-3.112653 4.9268796-7.3493197 4.9268796-12.0216462 0-9.5543946-7.8424537-17.2997687-17.5166018-17.2997687z" stroke="#231f20" stroke-linecap="round" stroke-linejoin="round" stroke-width="2.29628"/></g></svg>

<?xml version="1.0" encoding="UTF-8"?>
<svg width="64px" height="84px" viewBox="0 0 64 84" version="1.1" xmlns="http://www.w3.org/2000/svg" xmlns:xlink="http://www.w3.org/1999/xlink">
    <!-- Generator: sketchtool 50.2 (55047) - http://www.bohemiancoding.com/sketch -->
    <title>A7B528D8-82FA-4A38-BFF5-1CD80E4B2D1D</title>
    <desc>Created with sketchtool.</desc>
    <defs>
        <polygon id="path-1" points="0.221433194 0.0588503401 59.5118719 0.0588503401 59.5118719 77.0017932 0.221433194 77.0017932"></polygon>
    </defs>
    <g id="Future-Project-Desktop" stroke="none" stroke-width="1" fill="none" fill-rule="evenodd">
        <g id="Future-Camp" transform="translate(-230.000000, -1264.000000)">
            <g id="future-camp/what-it-is" transform="translate(164.000000, 836.000000)">
                <g id="Group-6" transform="translate(68.000000, 428.000000)">
                    <g id="Group-3" transform="translate(0.282407, 0.220061)">
                        <mask id="mask-2" fill="white">
                            <use xlink:href="#path-1"></use>
                        </mask>
                        <g id="Clip-2"></g>
                        <path d="M44.1256773,18.2906299 C44.1256773,18.2906299 30.5893255,6.32867075 34.757094,0.0587387755 C34.757094,0.0587387755 19.8146356,9.22572517 22.2656495,20.0416367 C22.2656495,20.0416367 22.4542977,20.7085143 22.6172468,21.6852626 C23.0140292,24.0629837 23.2574644,28.2868204 20.2501079,29.2669156 C20.2501079,29.2669156 14.9063949,31.6965143 12.8908532,26.6186503 C12.8908532,26.6186503 7.40876065,32.9719769 4.13537639,40.2069429 C3.12351065,42.4438136 5.5234088,38.5304054 3.00687639,41.3156163 C0.171223611,44.4539293 0.22149213,47.3406639 0.22149213,47.3537728 C0.22149213,57.3301605 5.71488102,66.4143102 13.957506,70.9429973 C14.4904088,71.1680789 16.664381,71.8327252 17.2376681,72.0349361 C17.2376681,72.0349361 8.56239491,63.9679769 10.6637884,58.3242014 C10.6637884,58.3242014 13.2585477,61.7779633 16.3751958,61.5629224 C16.3751958,61.5629224 19.3605245,61.0645075 19.1365755,58.1091605 C19.1365755,58.1091605 19.1365755,57.0526435 17.3574088,55.1415415 C17.3574088,55.1415415 10.2158903,46.4785483 19.1365755,42.2519224 C19.1365755,42.2519224 38.9937699,35.4997524 34.0855292,24.1887728 C34.0855292,24.1887728 41.6746634,27.7831061 31.8522514,39.241351 C31.8522514,39.241351 22.9312838,49.0222218 32.3001495,56.4195143 C32.3001495,56.4195143 39.6594042,61.7891197 40.5549181,47.4803986 C40.5549181,47.4803986 58.4835523,62.665181 37.5854042,77.0017932 C37.5854042,77.0017932 47.4674042,70.0518748 49.4812514,67.8448476 C53.4518995,63.4932694 54.9091218,66.8388136 58.4027838,56.8437388 C58.4027838,56.8437388 65.4259736,35.6562218 44.1256773,18.2906299" id="Fill-1" fill="#5CD8FF" mask="url(#mask-2)"></path>
                    </g>
                    <path d="M43.2537727,34.2900293 C38.1724162,34.2900293 33.5991106,36.4287231 30.3994347,39.8423218 C27.1997588,36.4287231 22.6261708,34.2900293 17.5448144,34.2900293 C7.8706662,34.2900293 0.0284949074,42.0354034 0.0284949074,51.589798 C0.0284949074,56.2621245 1.90706898,60.4987912 4.95537454,63.6114442 L4.98474491,63.6424034 C5.10787454,63.7623354 13.6159625,71.834315 30.3994347,81.9130633 C47.1829069,71.834315 55.6909949,63.7623354 55.8141245,63.6424034 L55.8434949,63.6114442 C58.8915181,60.4987912 60.7703745,56.2621245 60.7703745,51.589798 C60.7703745,42.0354034 52.9279208,34.2900293 43.2537727,34.2900293 Z" id="Stroke-4" stroke="#231F20" stroke-width="2.29628" stroke-linecap="round" stroke-linejoin="round"></path>
                </g>
            </g>
        </g>
    </g>
</svg>
